dist/img/ball.svg

<svg width="75" height="110" viewBox="0 0 75 110" fill="none" xmlns="http://www.w3.org/2000/svg">
<g clip-path="url(#clip0)">
<path d="M43.4235 34.7117V26.749H31.4821V34.7594C13.6407 37.6203 0 53.2597 0 72.1413C0 93.0733 16.803 110 37.4764 110C58.1498 110 74.9528 93.0256 74.9528 72.1413C75 53.2597 61.3121 37.5726 43.4235 34.7117Z" fill="#ACCDFF"/>
<path d="M17.3223 91.4998C21.6646 93.0732 25.8654 95.1712 30.019 97.4599C34.1725 99.7486 38.2789 102.133 42.4796 104.517C44.6508 105.756 46.8692 106.996 49.0876 108.188C51.3059 107.473 53.4299 106.519 55.4595 105.423C51.9667 103.754 48.474 101.894 44.9812 99.987C40.7804 97.6983 36.5797 95.3619 32.2373 93.2163C27.895 91.023 23.411 89.0204 18.6439 87.5899C16.2839 86.8747 13.8295 86.2549 11.328 85.9688C8.82639 85.6827 6.23041 85.6827 3.68164 86.1595C3.35125 86.2072 3.06805 86.3026 2.78485 86.3502C3.20965 87.3992 3.68164 88.4005 4.15364 89.4018H4.20084C6.37201 89.1634 8.59039 89.3065 10.8088 89.6879C12.9799 90.0217 15.1983 90.6892 17.3223 91.4998Z" fill="white"/>
<path d="M30.0189 43.7234C34.1725 46.0121 38.2788 48.3962 42.4796 50.7802C46.6803 53.1643 50.8811 55.5483 55.4594 57.5509C57.725 58.5522 60.085 59.5058 62.6338 60.078C63.9082 60.4118 65.2297 60.6025 66.6457 60.6502C66.9761 60.6979 67.3537 60.6502 67.6841 60.6502C68.0617 60.6502 68.3921 60.6502 68.7697 60.5548L69.8553 60.4118C70.2329 60.3164 70.5633 60.2211 70.9409 60.1257C71.6017 59.935 72.2153 59.6489 72.8761 59.3628C72.3569 57.8847 71.7433 56.5019 71.0825 55.1192C70.8937 55.1669 70.7049 55.2146 70.5161 55.2622C70.2801 55.3099 70.0913 55.3576 69.8553 55.4053C68.9585 55.5483 68.0145 55.5006 67.0233 55.4053C66.5041 55.3576 66.0321 55.2622 65.5129 55.1669C64.9938 55.0715 64.4746 54.9762 63.9554 54.8331C61.8786 54.3086 59.7074 53.498 57.6306 52.5921C53.4299 50.7325 49.2291 48.4915 45.0284 46.2029C40.8276 43.9142 36.6269 41.5778 32.2845 39.4322C30.0661 38.2878 27.7533 37.2388 25.4406 36.2375C23.5054 36.9051 21.6646 37.7156 19.871 38.7169C23.2694 40.1951 26.6678 41.9116 30.0189 43.7234Z" fill="white"/>
<path d="M32.2374 28.7516C32.0014 28.6086 31.7654 28.5132 31.5294 28.4179V33.8535C35.1637 35.8084 38.7981 37.9541 42.4796 40.052C46.6804 42.4361 50.8811 44.8201 55.4595 46.8227C57.7251 47.824 60.0851 48.7776 62.6338 49.3498C63.9082 49.6836 65.2298 49.8743 66.6458 49.922C66.9762 49.9697 67.3538 49.922 67.6842 49.922C67.7786 49.922 67.8258 49.922 67.9202 49.922C66.2682 47.6333 64.3802 45.5353 62.3034 43.6758C60.7458 43.199 59.1411 42.5791 57.5835 41.9116C53.3827 40.052 49.182 37.811 44.9812 35.5223C44.5092 35.2839 44.0372 34.9978 43.5652 34.7594C43.518 34.7594 43.4708 34.7594 43.4236 34.7117V34.6641C39.7421 32.6615 36.0133 30.6112 32.2374 28.7516Z" fill="white"/>
<path d="M32.2373 103.897C27.895 101.703 23.411 99.7009 18.6439 98.2705C16.2839 97.5553 13.8295 96.9354 11.3279 96.6493C10.4784 96.554 9.62877 96.5063 8.77917 96.4586C10.1008 98.0797 11.5639 99.5579 13.1215 100.893C14.5375 101.274 15.9535 101.703 17.3695 102.228C21.7118 103.801 25.9126 105.899 30.0662 108.188C31.0101 108.713 31.9541 109.237 32.8981 109.762C34.4085 109.952 35.9661 110.048 37.5237 110.048C39.4117 110.048 41.2052 109.905 42.9988 109.619C39.4589 107.664 35.8717 105.709 32.2373 103.897Z" fill="white"/>
<path d="M74.0561 74.8114L73.4897 75.2882C73.3953 75.3836 73.3009 75.479 73.2065 75.5267L72.9233 75.7174C72.7345 75.8604 72.5457 76.0035 72.3569 76.0988L71.7433 76.3849C71.5545 76.4803 71.3185 76.528 71.1297 76.6233C70.9409 76.7187 70.7049 76.7664 70.4689 76.814C70.2329 76.8617 70.0441 76.9094 69.8081 76.9571C68.9113 77.1001 67.9673 77.0524 66.9762 76.9571C66.457 76.9094 65.985 76.814 65.4658 76.7187C64.9466 76.6233 64.4274 76.528 63.9082 76.3849C61.8314 75.8604 59.6602 75.0498 57.5835 74.1439C53.3827 72.2843 49.1819 70.0433 44.9812 67.7547C40.7804 65.466 36.5797 63.1296 32.2373 60.984C27.895 58.7906 23.411 56.788 18.6439 55.3576C16.2839 54.6424 13.8295 54.0225 11.3279 53.7364C9.15675 53.498 6.98557 53.4504 4.7672 53.7364C4.1064 54.9285 3.54001 56.1205 3.02081 57.3602C3.39841 57.2648 3.77601 57.2172 4.2008 57.1695C6.37198 56.9311 8.59036 57.0741 10.8087 57.4556C13.0271 57.837 15.2455 58.5045 17.3695 59.3151C21.7118 60.8886 25.9126 62.9866 30.0661 65.2752C34.2197 67.5639 38.326 69.948 42.5268 72.332C46.7276 74.7161 50.9283 77.1001 55.5067 79.1027C57.7723 80.104 60.1322 81.0576 62.681 81.6298C63.9554 81.9636 65.277 82.1543 66.693 82.202C67.0234 82.2497 67.401 82.202 67.7314 82.202C68.1089 82.202 68.4393 82.202 68.8169 82.1066L69.9025 81.9636C70.2801 81.8682 70.6105 81.7729 70.9881 81.6775C72.1209 81.3437 73.2537 80.8192 74.2449 80.104C74.6697 78.0537 74.9529 75.9558 75.0473 73.7625C74.9057 73.9055 74.8113 74.0485 74.6697 74.2393L74.0561 74.8114Z" fill="white"/>
<path d="M17.3223 48.5392C21.6646 50.1127 25.8654 52.2107 30.0189 54.4993C34.1725 56.788 38.2788 59.1721 42.4796 61.5561C46.6804 63.9402 50.8811 66.3242 55.4595 68.3268C57.725 69.3281 60.085 70.2817 62.6338 70.8539C63.9082 71.1877 65.2298 71.3784 66.6457 71.4261C66.9761 71.4738 67.3537 71.4261 67.6841 71.4261C68.0617 71.4261 68.3921 71.4261 68.7697 71.3307L69.8553 71.1877C70.2329 71.0923 70.5633 70.997 70.9409 70.9016C72.3569 70.4725 73.7729 69.7572 74.8585 68.7559C74.7169 67.1348 74.4809 65.5136 74.1505 63.9402L74.0561 64.0355L73.4897 64.5123C73.3953 64.6077 73.3009 64.7031 73.2065 64.7508L72.9233 64.9415C72.7345 65.0845 72.5457 65.2276 72.3569 65.3229L71.7433 65.609C71.5545 65.7044 71.3185 65.7521 71.1297 65.8474C70.9409 65.9428 70.7049 65.9905 70.4689 66.0381C70.2329 66.0858 70.0441 66.1335 69.8081 66.1812C68.9113 66.3242 67.9673 66.2765 66.9761 66.1812C66.4569 66.1335 65.9849 66.0381 65.4658 65.9428C64.9466 65.8474 64.4274 65.7521 63.9082 65.609C61.8314 65.0845 59.6602 64.2739 57.5834 63.368C53.3827 61.5084 49.1819 59.2674 44.9812 56.9788C40.7804 54.6901 36.5797 52.3537 32.2373 50.2081C27.895 48.0147 23.411 46.0121 18.6439 44.5817C16.8975 44.0572 15.1039 43.5804 13.2631 43.2466C12.0831 44.2956 10.9503 45.3923 9.86475 46.5366C10.1479 46.5843 10.4783 46.632 10.7615 46.6797C12.9799 47.1088 15.1983 47.7286 17.3223 48.5392Z" fill="white"/>
<path d="M71.1297 87.3992C70.9409 87.4946 70.7049 87.5422 70.4689 87.5899C70.2329 87.6376 70.0441 87.6853 69.8081 87.733C68.9113 87.876 67.9673 87.8283 66.9761 87.733C66.4569 87.6853 65.9849 87.5899 65.4658 87.4946C64.9466 87.3992 64.4274 87.3038 63.9082 87.1608C61.8314 86.6363 59.6602 85.8257 57.5834 84.9198C53.3827 83.0602 49.1819 80.8192 44.9812 78.5305C40.7804 76.2419 36.5797 73.9055 32.2373 71.7599C27.895 69.5665 23.411 67.5639 18.6438 66.1335C16.2839 65.4183 13.8295 64.7984 11.3279 64.5124C8.82635 64.2263 6.23038 64.2263 3.68161 64.7031C2.64322 64.8938 1.60483 65.1799 0.613638 65.5613C0.42484 66.658 0.283242 67.8023 0.188843 68.9467C1.46323 68.4222 2.83201 68.1361 4.2008 67.9454C6.37198 67.707 8.59035 67.85 10.8087 68.2315C13.0271 68.6129 15.2455 69.2804 17.3695 70.091C21.7118 71.6645 25.9126 73.7625 30.0661 76.0511C34.2197 78.3398 38.326 80.7239 42.5268 83.1079C46.7276 85.492 50.9283 87.876 55.5067 89.8786C57.7722 90.8799 60.1322 91.8335 62.681 92.4057C63.9554 92.7395 65.277 92.9302 66.6929 92.9779C67.0233 93.0256 67.4009 92.9779 67.7313 92.9779C68.1089 92.9779 68.4393 92.9779 68.8169 92.8825H68.9585C70.1385 91.0706 71.1769 89.1157 72.0265 87.0654L71.7905 87.2085C71.5545 87.2562 71.3185 87.3038 71.1297 87.3992Z" fill="white"/>
<path d="M10.7615 78.912C12.9799 79.2935 15.1983 79.961 17.3222 80.7716C21.6646 82.345 25.8654 84.443 30.0189 86.7317C34.1725 89.0204 38.2788 91.4044 42.4796 93.7885C46.6803 96.1725 50.8811 98.5566 55.4594 100.559C56.9698 101.227 58.5274 101.847 60.1322 102.371C61.8314 101.084 63.389 99.6532 64.8521 98.0798C64.5689 98.0321 64.2385 97.9367 63.9553 97.8414C61.8786 97.3169 59.7074 96.5063 57.6306 95.6004C53.4299 93.7408 49.2291 91.4998 45.0283 89.2111C40.8276 86.9224 36.6268 84.586 32.2845 82.4404C27.9421 80.2471 23.4582 78.2445 18.691 76.814C16.3311 76.0988 13.8767 75.479 11.3751 75.1929C8.77913 74.8591 6.18316 74.8591 3.63439 75.3359C2.5016 75.5743 1.32161 75.9081 0.236023 76.3372C0.330422 77.3862 0.51922 78.3875 0.708018 79.3888C1.84081 79.0074 2.97359 78.7213 4.15358 78.5782C6.32476 78.3398 8.54313 78.4829 10.7615 78.912Z" fill="white"/>
<path d="M37.3348 26.9874C34.8332 26.9874 32.8508 24.9371 32.8508 22.4577C32.8508 19.9783 34.8804 17.928 37.3348 17.928C39.7892 17.928 41.8187 19.9783 41.8187 22.4577C41.8187 24.9371 39.7892 26.9874 37.3348 26.9874ZM37.3348 19.2154C35.5884 19.2154 34.1252 20.6459 34.1252 22.4577C34.1252 24.2219 35.5412 25.7 37.3348 25.7C39.0812 25.7 40.5443 24.2696 40.5443 22.4577C40.5443 20.6935 39.0812 19.2154 37.3348 19.2154Z" fill="#EDDFE7"/>
<path d="M30.4908 23.1253V33.472C30.4908 34.0442 30.9628 34.521 31.5292 34.521C32.0956 34.521 32.5676 34.0442 32.5676 33.472V33.186C32.5676 32.7568 32.8508 32.3754 33.2756 32.28C33.7948 32.1847 34.2196 32.6138 34.2196 33.0906V33.4244C34.2196 33.9965 34.6916 34.4733 35.258 34.4733H35.73C36.2964 34.4733 36.7684 33.9965 36.7684 33.4244V33.1383C36.7684 32.7091 37.0516 32.3277 37.4764 32.2323C37.9956 32.137 38.4204 32.5661 38.4204 33.0429V33.3767C38.4204 33.9489 38.8924 34.4257 39.4588 34.4257H39.9307C40.4971 34.4257 40.9691 33.9489 40.9691 33.3767V33.0906C40.9691 32.6615 41.2523 32.28 41.6771 32.1847C42.1963 32.0893 42.6211 32.5184 42.6211 32.9952V33.329C42.6211 33.9012 43.0931 34.378 43.6595 34.378C44.2259 34.378 44.6979 33.9012 44.6979 33.329V23.1253H30.4908C30.538 23.1253 30.4908 23.1253 30.4908 23.1253Z" fill="#EDDFE7"/>
<path d="M37.3348 19.2154V0" stroke="white" stroke-miterlimit="10"/>
<path d="M37.2876 20.4551C38.1478 20.4551 38.8452 19.7507 38.8452 18.8817C38.8452 18.0126 38.1478 17.3082 37.2876 17.3082C36.4273 17.3082 35.73 18.0126 35.73 18.8817C35.73 19.7507 36.4273 20.4551 37.2876 20.4551Z" fill="white"/>
<path d="M37.2875 20.4074C38.1371 20.4074 38.8451 19.6922 38.8451 18.834C38.8451 18.5956 38.7979 18.4049 38.7035 18.2141C37.7123 18.8817 36.6739 18.8817 35.7772 19.1201C35.9188 19.883 36.5324 20.4074 37.2875 20.4074Z" fill="#BDC1F2"/>
</g>
<defs>
<clipPath id="clip0">
<rect width="75" height="110" fill="white"/>
</clipPath>
</defs>
</svg>

<svg width="75" height="110" fill="none" xmlns="http://www.w3.org/2000/svg"><g clip-path="url(#clip0)"><path d="M43.423 34.712v-7.963h-11.94v8.01C13.64 37.62 0 53.26 0 72.141 0 93.073 16.803 110 37.476 110c20.674 0 37.477-16.974 37.477-37.859.047-18.881-13.64-34.568-31.53-37.43z" fill="#ACCDFF"/><path d="M17.322 91.5c4.343 1.573 8.543 3.671 12.697 5.96s8.26 4.673 12.46 7.057a297.59 297.59 0 006.609 3.671c2.218-.715 4.342-1.669 6.371-2.765-3.492-1.669-6.985-3.529-10.478-5.436-4.2-2.289-8.401-4.625-12.744-6.77-4.342-2.194-8.826-4.197-13.593-5.627-2.36-.715-4.814-1.335-7.316-1.621-2.502-.286-5.098-.286-7.646.19-.33.048-.614.144-.897.191.425 1.05.897 2.05 1.369 3.052H4.2c2.171-.239 4.39-.096 6.608.286 2.17.334 4.39 1.001 6.513 1.812zm12.697-47.777c4.154 2.29 8.26 4.673 12.46 7.057 4.201 2.384 8.402 4.768 12.98 6.77 2.266 1.002 4.626 1.956 7.175 2.528 1.274.334 2.596.524 4.012.572.33.048.708 0 1.038 0 .378 0 .708 0 1.086-.095l1.085-.143c.378-.096.708-.19 1.086-.286.66-.191 1.274-.477 1.935-.763-.52-1.478-1.133-2.861-1.794-4.244l-.566.143c-.236.048-.425.096-.66.143-.897.143-1.841.096-2.833 0-.519-.047-.99-.143-1.51-.238-.52-.096-1.038-.19-1.558-.334-2.076-.524-4.248-1.335-6.324-2.24-4.201-1.86-8.402-4.102-12.603-6.39-4.2-2.289-8.401-4.625-12.743-6.77-2.219-1.145-4.532-2.194-6.844-3.196a34.25 34.25 0 00-5.57 2.48c3.398 1.478 6.797 3.195 10.148 5.006zm2.218-14.971a4.739 4.739 0 00-.708-.334v5.435c3.635 1.955 7.27 4.101 10.95 6.199 4.201 2.384 8.402 4.768 12.98 6.77 2.266 1.002 4.626 1.956 7.175 2.528 1.274.334 2.596.524 4.012.572.33.048.708 0 1.038 0h.236a39.129 39.129 0 00-5.617-6.246c-1.557-.477-3.162-1.097-4.72-1.764-4.2-1.86-8.401-4.101-12.602-6.39-.472-.238-.944-.524-1.416-.763-.047 0-.094 0-.141-.047v-.048c-3.682-2.003-7.41-4.053-11.187-5.912zm0 75.145c-4.342-2.194-8.826-4.196-13.593-5.627-2.36-.715-4.814-1.335-7.316-1.62a44.65 44.65 0 00-2.549-.191 34.893 34.893 0 004.342 4.434c1.416.381 2.832.81 4.248 1.335 4.343 1.573 8.544 3.671 12.697 5.96l2.832 1.574c1.51.19 3.068.286 4.626.286 1.888 0 3.681-.143 5.475-.429-3.54-1.955-7.127-3.91-10.762-5.722zm41.819-29.086l-.566.477c-.095.096-.19.191-.283.239l-.284.19c-.189.143-.377.287-.566.382l-.614.286c-.188.095-.424.143-.613.238-.19.096-.425.143-.661.191-.236.048-.425.095-.66.143-.898.143-1.842.095-2.833 0-.519-.048-.991-.143-1.51-.238-.52-.096-1.039-.191-1.558-.334-2.077-.525-4.248-1.335-6.325-2.241-4.2-1.86-8.401-4.1-12.602-6.39-4.2-2.288-8.401-4.624-12.744-6.77-4.342-2.193-8.826-4.196-13.593-5.626-2.36-.716-4.814-1.335-7.316-1.622-2.171-.238-4.342-.286-6.56 0A36.418 36.418 0 003.02 57.36a8.725 8.725 0 011.18-.19c2.171-.239 4.39-.096 6.608.286 2.218.381 4.437 1.048 6.56 1.86 4.343 1.573 8.544 3.67 12.697 5.96 4.154 2.288 8.26 4.672 12.46 7.056 4.202 2.384 8.402 4.768 12.98 6.77 2.266 1.002 4.626 1.956 7.175 2.528 1.274.334 2.596.524 4.012.572.33.048.708 0 1.038 0 .378 0 .708 0 1.086-.095l1.086-.143c.377-.096.707-.191 1.085-.287a10.842 10.842 0 003.257-1.573c.425-2.05.708-4.148.802-6.341-.141.142-.236.285-.377.476l-.614.572z" fill="#fff"/><path d="M17.322 48.54c4.343 1.573 8.543 3.67 12.697 5.96 4.154 2.288 8.26 4.672 12.46 7.056 4.201 2.384 8.402 4.768 12.98 6.77 2.266 1.002 4.626 1.956 7.175 2.528 1.274.334 2.596.524 4.012.572.33.048.708 0 1.038 0 .378 0 .708 0 1.086-.095l1.085-.143c.378-.096.708-.191 1.086-.286 1.416-.43 2.832-1.145 3.918-2.146a40.8 40.8 0 00-.709-4.816l-.094.096-.566.476c-.095.096-.19.191-.283.239l-.284.19a3.831 3.831 0 01-.566.382l-.614.286c-.188.095-.424.143-.613.238-.19.096-.425.144-.661.191-.236.048-.425.096-.66.143-.898.143-1.842.096-2.833 0-.52-.047-.991-.143-1.51-.238-.52-.096-1.039-.19-1.558-.334-2.077-.524-4.248-1.335-6.325-2.241-4.2-1.86-8.401-4.1-12.602-6.39-4.2-2.288-8.401-4.624-12.744-6.77-4.342-2.193-8.826-4.196-13.593-5.626-1.746-.525-3.54-1.002-5.38-1.335a55.61 55.61 0 00-3.4 3.29c.284.047.614.095.897.143a39.537 39.537 0 016.561 1.86zM71.13 87.4c-.19.095-.425.142-.661.19-.236.048-.425.095-.66.143-.898.143-1.842.095-2.833 0-.52-.048-.991-.143-1.51-.238-.52-.096-1.039-.191-1.558-.334-2.077-.525-4.248-1.335-6.325-2.241-4.2-1.86-8.401-4.1-12.602-6.39-4.2-2.288-8.401-4.624-12.744-6.77-4.342-2.194-8.826-4.196-13.593-5.627-2.36-.715-4.814-1.335-7.316-1.62-2.502-.287-5.098-.287-7.646.19a17.22 17.22 0 00-3.068.858 38.975 38.975 0 00-.425 3.386c1.274-.525 2.643-.81 4.012-1.002 2.171-.238 4.39-.095 6.608.287 2.218.38 4.437 1.048 6.56 1.859 4.343 1.574 8.544 3.672 12.697 5.96 4.154 2.289 8.26 4.673 12.46 7.057 4.202 2.384 8.402 4.768 12.98 6.77 2.266 1.002 4.626 1.956 7.175 2.528 1.274.334 2.596.524 4.012.572.33.048.708 0 1.038 0 .378 0 .708 0 1.086-.096h.142a35.808 35.808 0 003.067-5.817l-.236.144c-.236.047-.472.095-.66.19zm-60.369-8.488c2.219.381 4.437 1.049 6.561 1.86 4.343 1.573 8.543 3.671 12.697 5.96 4.154 2.288 8.26 4.672 12.46 7.056 4.201 2.385 8.402 4.769 12.98 6.771a49.753 49.753 0 004.673 1.812 36.656 36.656 0 004.72-4.291 6.247 6.247 0 01-.897-.239c-2.076-.524-4.248-1.335-6.324-2.24-4.201-1.86-8.402-4.101-12.603-6.39-4.2-2.289-8.401-4.625-12.743-6.77-4.343-2.194-8.827-4.197-13.594-5.627-2.36-.715-4.814-1.335-7.316-1.621-2.596-.334-5.192-.334-7.74.143a21.354 21.354 0 00-3.399 1.001c.094 1.05.283 2.05.472 3.052 1.133-.382 2.266-.668 3.446-.81 2.17-.24 4.39-.096 6.607.333z" fill="#fff"/><path d="M37.335 26.987c-2.502 0-4.484-2.05-4.484-4.53 0-2.479 2.03-4.529 4.484-4.529s4.484 2.05 4.484 4.53c0 2.48-2.03 4.53-4.484 4.53zm0-7.772c-1.747 0-3.21 1.43-3.21 3.243 0 1.764 1.416 3.242 3.21 3.242 1.746 0 3.21-1.43 3.21-3.242 0-1.764-1.464-3.243-3.21-3.243z" fill="#EDDFE7"/><path d="M30.49 23.125v10.347c0 .572.473 1.049 1.04 1.049.566 0 1.038-.477 1.038-1.049v-.286c0-.43.283-.81.708-.906.519-.095.944.334.944.81v.334c0 .572.472 1.05 1.038 1.05h.472c.566 0 1.038-.477 1.038-1.05v-.286c0-.429.284-.81.708-.906.52-.095.944.334.944.81v.335c0 .572.472 1.049 1.039 1.049h.472c.566 0 1.038-.477 1.038-1.05v-.285c0-.43.283-.811.708-.906.52-.096.944.333.944.81v.334c0 .572.472 1.049 1.038 1.049.567 0 1.039-.477 1.039-1.049V23.125H30.49c.047 0 0 0 0 0z" fill="#EDDFE7"/><path d="M37.335 19.215V0" stroke="#fff" stroke-miterlimit="10"/><path d="M37.288 20.455c.86 0 1.557-.704 1.557-1.573 0-.87-.697-1.574-1.557-1.574s-1.558.705-1.558 1.574c0 .869.697 1.573 1.558 1.573z" fill="#fff"/><path d="M37.288 20.407c.85 0 1.557-.715 1.557-1.573 0-.238-.047-.43-.142-.62-.99.668-2.03.668-2.926.906.142.763.755 1.287 1.51 1.287z" fill="#BDC1F2"/></g><defs><clipPath id="clip0"><path fill="#fff" d="M0 0h75v110H0z"/></clipPath></defs></svg>
